X:130
T: Richmudis von Adocht
N: Q1112E
O: Osteuropa, UdSSR, Wolga - Kolonie, Samara
N: Melodievergleich zu Q0112A, anderes Lied. Verzierungen (Vorschlaege)
N: Melodie auf zwei Textstrophen verteilt.
R: ???
M: 3/8
L: 1/16
K: G
D2 | G3FG2 | A3GA2 | c2B2cA | A6
B4c2 | c2B2B2 | cBA2G2 | A3BA2 | G4
D2 | G2F2G2 | A3GA2 | c2B2cA | A6
B2cBcB | B3cB2 | cBA2G2 | B4A2 | G4

